T: Glenbeigh, The
M: 4/4
L: 1/8
K: Gmaj
G>AB>c d>g (3fga | g2 B2 d4 | c>eA>B c2 c2 | B>dG>A B>cB>A |.Gz .Bz .d>gf>a | g2 B2 d3 B | c<eA>B c>AF>G | (3ABA G2 G2 :|d2 b2 c2 a2 | B>gg>f g>dB>G | F>GA>B c2 B>A | G>FG>A B>^AB>c |d2 b>B c2 a>A | B>g (3ggg g>d (3BAG | F2 (3GAB c>AF>G | (3ABA G2 G2 :||: (3DEF |\ ~ & ~ |: (3Bc^c |\GABc dgfa | g2 B2 d4 | ceAB c2 c2 | BdGA BcBA |GABc dgfa | g2 B2 d4 | ceAB cAFG | A2 G2 G2 :|d2 b2 c2 a2 | Bggf gdBG | FGAB c2 BA | GFGA BABc |d2 b2 c2 a2 | Bggf gdBG | FGAB c>AFG | A2 G2 G2 :|
